X:253
T: Die Jdin (22b), S. 93
N: T0142
O: Luxemburg
S: Singendes Volk, Esch-Alzette 1937 posth.]
N: Hesperingen, fff Besch-Oberweis, 14.5.1934
R: Liebeslieder]
M: 2/4
L: 1/16
K: F
C2 | F2F2F2GG | A2G2F2
c2 | c2c2B2c2 | A4z2
c2 | c2BBd2B2 | B4G2
GA | BBB2cBc2 | c4A2
dd | c2c2B2c2 | A4z2

